icons/sanitizer-minimal.svg

<svg xmlns="http://www.w3.org/2000/svg" viewBox="0 0 24 24" fill="currentColor">
  <path d="M9 2.25c-.41421 0-.75.33579-.75.75s.33579.75.75.75h2.25v.46147c-1.36613.26127-2.46182 1.32252-2.8832 2.57516C7.09896 7.43708 6.25 8.7516 6.25 10.3001v9.2c0 1.181.90329 2.25 2.25 2.25h7c1.2142 0 2.25-1.0358 2.25-2.25v-9.2c0-1.64035-.9526-3.01814-2.3467-3.62212-.4235-1.21648-1.4235-2.13473-2.6533-2.4284V3.75h1.55c.1561 0 .375.08559.5697.28033l1.5 1.5c.2929.29289.7678.29289 1.0607 0 .2928-.29289.2928-.76777 0-1.06066l-1.5-1.5C15.5251 2.56441 14.9439 2.25 14.3 2.25H9Zm1.3463 4.1001c.4111-.42608.9694-.7002 1.5537-.7002.6143 0 1.1846.26195 1.5937.7002h-3.1474Zm4.02 1.56169c.1235.08748.273.13761.4298.13827.8682.37088 1.4539 1.22197 1.4539 2.25004v9.2c0 .3858-.3642.75-.75.75h-7c-.45329 0-.75-.3309-.75-.75v-9.2c0-1.38578 1.06423-2.45 2.45-2.45h3.6c.1959 0 .3854.02126.5663.06169Z"/>
</svg>

<svg width="24" height="24" viewBox="0 0 24 24" fill="none" xmlns="http://www.w3.org/2000/svg">
<path fill-rule="evenodd" clip-rule="evenodd" d="M9 2.25C8.58579 2.25 8.25 2.58579 8.25 3C8.25 3.41421 8.58579 3.75 9 3.75H11.25V4.21147C9.88387 4.47274 8.78818 5.53399 8.3668 6.78663C7.09896 7.43708 6.25 8.7516 6.25 10.3001V19.5001C6.25 20.6811 7.15329 21.7501 8.5 21.7501H15.5C16.7142 21.7501 17.75 20.7143 17.75 19.5001V10.3001C17.75 8.65975 16.7974 7.28196 15.4033 6.67798C14.9798 5.4615 13.9798 4.54325 12.75 4.24958V3.75H14.3C14.4561 3.75 14.675 3.83559 14.8697 4.03033L16.3697 5.53033C16.6626 5.82322 17.1375 5.82322 17.4304 5.53033C17.7232 5.23744 17.7232 4.76256 17.4304 4.46967L15.9304 2.96967C15.5251 2.56441 14.9439 2.25 14.3 2.25H9ZM10.3463 6.3501C10.7574 5.92402 11.3157 5.6499 11.9 5.6499C12.5143 5.6499 13.0846 5.91185 13.4937 6.3501H10.3463ZM14.3663 7.91179C14.4898 7.99927 14.6393 8.0494 14.7961 8.05006C15.6643 8.42094 16.25 9.27203 16.25 10.3001V19.5001C16.25 19.8859 15.8858 20.2501 15.5 20.2501H8.5C8.04671 20.2501 7.75 19.9192 7.75 19.5001V10.3001C7.75 8.91432 8.81423 7.8501 10.2 7.8501H13.8C13.9959 7.8501 14.1854 7.87136 14.3663 7.91179Z" fill="black"/>
</svg>
